X:1
T: The Caithness Reel
C:
R:Reel
Q: 232
K:Cm
M:4/4
L:1/8
|:e1/2d1/2|c2 BG FE CD|E2 EG BG Be|c2 BG FE Cc|ec eG F2 Fd|
c2 BG FE CD|E2 EG BG Be|c2 BG FE Cc|ec dB c2 cd|
ef gf e2 ed|cB ce f2 fg|ef gf e2 ed|cB GB c2 cd|
ef gf e2 ed|cB ce f2 fg|eg fg ef de|cB GB c2 c:|
